data/playwrite-fr-moderne.svg

<svg width="163.45" height="30.198" viewBox="0 0 163.45 30.198" xmlns="http://www.w3.org/2000/svg"><path transform="translate(0 21.7) scale(.014 -.014)" d="m202-14q-44 0-44 28v1054q0 14 11.5 21t33.5 7h228q118 0 197.5-27.5t120.5-88 41-158.5q0-90-32.5-155t-87.5-107.5-122.5-67.5-138.5-36q-45-6-87-9t-76-4v-429q0-14-11-21t-33-7zm44 536q22 1 48.5 2.5t55.5 4.5 58 6q78 13 144 45t106 91 40 149q0 71-30 114t-89.5 62.5-147.5 19.5h-185z"/><path transform="translate(11.746 21.7) scale(.014 -.014)" d="m189-17q-46 0-70 27.5t-24 82.5v996q0 13 10.5 19.5t31.5 6.5q22 0 33-6.5t11-19.5v-983q0-26 5-35.5t18-9.5q7 0 12.5 5t12 16 14.5 29q4 9 13 11.5t22-2.5q14-4 20-13t2-18q-12-33-28-56.5t-36.5-36.5-46.5-13z"/><path transform="translate(15.932 21.7) scale(.014 -.014)" d="m226-17q-50 0-87 28.5t-56.5 82-19.5 129.5q0 52 9.5 97.5t28 82 46 62.5 63 40 79.5 14q34 0 63-7t59-23v2q0 11 11 17.5t32 6.5q22 0 33-6.5t11-19.5v-383q0-17 2-27t6.5-14 12.5-4 14 5 13 16 15 29q4 9 13 12t22-3q14-5 20.5-14t1.5-21q-9-27-24.5-50t-36.5-37.5-49-14.5q-24 0-42 7.5t-30.5 22-18.5 35-6 45.5q0 17 0 35.5t0 36.5q-18-58-46.5-98.5t-63.5-62-75-21.5zm-75 241q0-46 8.5-82.5t28.5-57.5 53-21q37 0 70.5 38t59.5 106.5 40 161.5v42q-31 17-58 23.5t-50 6.5q-29 0-53-9t-42.5-27-31-44-19-60.5-6.5-76.5z"/><path transform="translate(24.64 21.7) scale(.014 -.014)" d="m231-17q-36 0-67.5 14.5t-50.5 50-19 97.5v344q0 13 10.5 19.5t31.5 6.5q22 0 33-6.5t11-19.5v-334q0-32 6-53t20-31 38-10q35 0 65 26t53.5 73.5 41 112 27.5 140.5v76q0 13 10.5 19.5t32.5 6.5 33-6.5 11-19.5v-864q0-82-21-136.5t-64-81-109-26.5q-39 0-77.5 11t-70.5 28.5-52 37.5q-12 12-13.5 24.5t15.5 28.5q15 14 25 15t27-11q40-29 73-42.5t73-13.5q42 0 65.5 16.5t32.5 53.5 9 99v560q-19-57-43.5-96.5t-51.5-63-54-34.5-51-11z"/><path transform="translate(33.432 21.7) scale(.014 -.014)" d="m229-15q-22 0-32 7t-15 19l-157 454q-7 20 4.5 35t39.5 15q15 0 24-6t13-20l124-380 132 380q5 14 14.5 20t25.5 6q15 0 25-6t14-20l135-380 123 380q5 14 14 20t24 6q29 0 40-14t3-36l-159-454q-4-12-14-19t-32-7-30.5 7.5-12.5 18.5l-130 367-127-367q-4-11-14.5-18.5t-31.5-7.5z"/><path transform="translate(44.688 21.7) scale(.014 -.014)" d="m136-15q-21 0-31.5 6.5t-10.5 19.5v478q0 13 10.5 19.5t31.5 6.5q22 0 33-6.5t11-19.5v-170q18 55 40 93t45.5 61.5 46.5 34.5 44 11q26 0 51.5-12t37.5-29q5-7 3.5-18t-9.5-22q-10-14-21-17t-22 3q-12 7-23 11.5t-25 4.5q-25 0-51.5-26t-50-73.5-41-111.5-25.5-139v-79q0-13-11-19.5t-33-6.5z"/><path transform="translate(51.044 21.7) scale(.014 -.014)" d="m188-17q-46 0-70 27.5t-24 82.5v396q0 13 10.5 19.5t31.5 6.5q22 0 33-6.5t11-19.5v-383q0-26 5-35.5t18-9.5q7 0 12 5t11.5 16 14.5 29q4 9 13 11.5t22-2.5q14-4 20-13t2-18q-12-33-28-56.5t-36-36.5-46-13zm-57 686q-28 0-42 15.5t-14 46.5q0 32 14 48t42 16 41.5-16 13.5-48q2-31-12.5-46.5t-42.5-15.5z"/><path transform="translate(55.244 21.7) scale(.014 -.014)" d="m228-17q-36 0-61 15t-38 45.5-13 74.5v302h-77q-15 0-21.5 9t-6.5 31q0 23 6.5 31.5t21.5 8.5h77v204q0 13 10.5 19.5t32.5 6.5 33-6.5 11-19.5v-204h127q15 0 21.5-8.5t6.5-31.5q0-22-6.5-31t-21.5-9h-127v-294q0-35 9.5-50t27.5-15q20 0 37.5 15t35.5 53q5 9 13.5 12t23.5-2q16-6 22-16.5t2-21.5q-14-41-35.5-67t-49-38.5-61.5-12.5z"/><path transform="translate(60.648 21.7) scale(.014 -.014)" d="m271-19q-63 0-109.5 29.5t-72.5 84-26 128.5q0 59 17.5 112.5t51 95 81.5 65 110 23.5q41 0 75-14t54.5-42 20.5-72q0-38-18.5-70t-50.5-58-75-46.5-92-35.5-101-25l-5 69q35 8 71 18.5t68.5 24.5 58 31 40 37.5 14.5 44.5q0 32-22 45.5t-53 13.5q-33 0-62-15t-50-42.5-33-64-12-80.5q0-58 15.5-97.5t44.5-59.5 70-20q37 0 61.5 13t42.5 34 35 43q11 15 24.5 14t26.5-12q14-11 17.5-21.5t-4.5-23.5q-29-43-61.5-71.5t-70-42-81.5-13.5z"/><path transform="translate(72.212 21.7) scale(.014 -.014)" d="m202-14q-44 0-44 28v1054q0 14 11 21t33 7h500q15 0 21.5-8.5t6.5-31.5q0-22-6.5-31t-21.5-9h-456v-428h382q15 0 21-8.5t6-31.5q0-22-6-31t-21-9h-382v-494q0-14-11-21t-33-7z"/><path transform="translate(82.684 21.7) scale(.014 -.014)" d="m202-14q-22 0-33 7t-11 21v1054q0 14 11.5 21t33.5 7h197q123 0 201.5-26t117.5-83 39-150q0-52-14-95.5t-39.5-79.5-61.5-64-82.5-48-100.5-32.5-115-17.5q64-79 134-157t145.5-150.5 157.5-138.5q11-8 14-23.5t-16-33.5q-13-13-27-13.5t-29 11.5q-88 72-171 153.5t-159.5 167.5-147.5 171v-473q0-14-11-21t-33-7zm44 584q53 0 101 5t90 15.5 78 25.5 64 36.5 48 49 30.5 61 10.5 74.5q0 64-28 103.5t-85 57.5-143 18h-166z"/><path transform="translate(98.518 21.7) scale(.014 -.014)" d="m202-14q-44 0-44 28v1074q0 14 11 20.5t33 6.5q20 0 28.5-7.5t15.5-19.5l383-695 383 695q6 12 15 19.5t28 7.5q44 0 44-27v-1074q0-14-11-21t-33-7q-43 0-43 28v901l-337-608q-7-13-16.5-17.5t-28.5-4.5-29.5 3.5-18.5 17.5l-336 610v-902q0-14-11-21t-33-7z"/><path transform="translate(116.12 21.7) scale(.014 -.014)" d="m295-19q-67 0-119.5 31.5t-82.5 91.5-30 146q0 59 17 108t48.5 85 73.5 56 93 20q67 0 119-34.5t82-94 30-135.5q0-48-11-90t-31.5-76-49-58-64-37-75.5-13zm0 80q31 0 57 14t45.5 40 30 61.5 10.5 78.5q0 53-18.5 94.5t-50.5 65.5-74 24q-31 0-57.5-14t-46-39.5-30-60-10.5-75.5q0-55 18.5-97.5t51-67 74.5-24.5z"/><path transform="translate(124.35 21.7) scale(.014 -.014)" d="m229-17q-52 0-89 28.5t-57 82-20 129.5q0 52 9.5 97.5t28 82 46 62.5 63 40 79.5 14q35 0 67-8t62-25v603q0 13 10 19.5t32 6.5 33-6.5 11-19.5v-983q0-26 4.5-35.5t17.5-9.5q7 0 13 5t13.5 17 16.5 31q3 7 11.5 9.5t22.5-3.5q14-5 20-14t2-18q-11-31-26.5-55t-36.5-37-49-13q-30 0-51 13.5t-32.5 40.5-11.5 67q0 17 0 33.5t0 32.5q-22-65-50.5-106.5t-63.5-61-75-19.5zm-78 241q0-42 8.5-79t29-59.5 54.5-22.5q38 0 71 33t60 103.5 44 184.5v25q-33 19-62.5 25.5t-52.5 6.5q-29 0-53-9t-42.5-27-31-44-19-60.5-6.5-76.5z"/><path transform="translate(133.32 21.7) scale(.014 -.014)" d="m271-19q-63 0-109.5 29.5t-72.5 84-26 128.5q0 59 17.5 112.5t51 95 81.5 65 110 23.5q41 0 75-14t54.5-42 20.5-72q0-38-18.5-70t-50.5-58-75-46.5-92-35.5-101-25l-5 69q35 8 71 18.5t68.5 24.5 58 31 40 37.5 14.5 44.5q0 32-22 45.5t-53 13.5q-33 0-62-15t-50-42.5-33-64-12-80.5q0-58 15.5-97.5t44.5-59.5 70-20q37 0 61.5 13t42.5 34 35 43q11 15 24.5 14t26.5-12q14-11 17.5-21.5t-4.5-23.5q-29-43-61.5-71.5t-70-42-81.5-13.5z"/><path transform="translate(140.69 21.7) scale(.014 -.014)" d="m136-15q-21 0-31.5 6.5t-10.5 19.5v478q0 13 10.5 19.5t31.5 6.5q22 0 33-6.5t11-19.5v-170q18 55 40 93t45.5 61.5 46.5 34.5 44 11q26 0 51.5-12t37.5-29q5-7 3.5-18t-9.5-22q-10-14-21-17t-22 3q-12 7-23 11.5t-25 4.5q-25 0-51.5-26t-50-73.5-41-111.5-25.5-139v-79q0-13-11-19.5t-33-6.5z"/><path transform="translate(147.04 21.7) scale(.014 -.014)" d="m529-17q-23 0-40.5 7t-29.5 20.5-18 34.5-6 48v266q0 28-6 45.5t-20 26.5-39 9q-35 0-65-24.5t-54.5-70.5-42-111.5-28.5-148.5v-74q0-13-11-19.5t-33-6.5q-21 0-31.5 6.5t-10.5 19.5v478q0 13 10.5 19.5t31.5 6.5q22 0 33-6.5t11-19.5v-171q19 59 43.5 97.5t51.5 61.5 54 32.5 52 9.5q39 0 71-13.5t50.5-46 18.5-90.5v-263q0-17 2-27t6.5-14 11.5-4q9 0 15.5 5t13.5 16 15 29q4 9 12.5 11.5t22.5-2.5 19.5-13.5 1.5-17.5q-11-33-27.5-56.5t-37.5-36.5-47-13z"/><path transform="translate(156.09 21.7) scale(.014 -.014)" d="m271-19q-63 0-109.5 29.5t-72.5 84-26 128.5q0 59 17.5 112.5t51 95 81.5 65 110 23.5q41 0 75-14t54.5-42 20.5-72q0-38-18.5-70t-50.5-58-75-46.5-92-35.5-101-25l-5 69q35 8 71 18.5t68.5 24.5 58 31 40 37.5 14.5 44.5q0 32-22 45.5t-53 13.5q-33 0-62-15t-50-42.5-33-64-12-80.5q0-58 15.5-97.5t44.5-59.5 70-20q37 0 61.5 13t42.5 34 35 43q11 15 24.5 14t26.5-12q14-11 17.5-21.5t-4.5-23.5q-29-43-61.5-71.5t-70-42-81.5-13.5z"/></svg>

<?xml version="1.0" encoding="utf-8" ?>
<svg baseProfile="tiny" height="100%" version="1.2" width="100%" xmlns="http://www.w3.org/2000/svg" xmlns:ev="http://www.w3.org/2001/xml-events" xmlns:xlink="http://www.w3.org/1999/xlink"><defs /><g><path d="M202 -14Q158 -14 158 14V1068Q158 1082 169.5 1089.0Q181 1096 203 1096H431Q549 1096 628.5 1068.5Q708 1041 749.0 980.5Q790 920 790 822Q790 732 757.5 667.0Q725 602 670.0 559.5Q615 517 547.5 492.0Q480 467 409 456Q364 450 322.0 447.0Q280 444 246 443V14Q246 0 235.0 -7.0Q224 -14 202 -14ZM246 522Q268 523 294.5 524.5Q321 526 350.0 529.0Q379 532 408 535Q486 548 552.0 580.0Q618 612 658.0 671.0Q698 730 698 820Q698 891 668.0 934.0Q638 977 578.5 996.5Q519 1016 431 1016H246Z" transform="translate(0.0, 72) scale(0.072, -0.072)" /><path d="M189 -17Q143 -17 119.0 10.5Q95 38 95 93V1089Q95 1102 105.5 1108.5Q116 1115 137 1115Q159 1115 170.0 1108.5Q181 1102 181 1089V106Q181 80 186.0 70.5Q191 61 204 61Q211 61 216.5 66.0Q222 71 228.5 82.0Q235 93 243 111Q247 120 256.0 122.5Q265 125 278 120Q292 116 298.0 107.0Q304 98 300 89Q288 56 272.0 32.5Q256 9 235.5 -4.0Q215 -17 189 -17Z" transform="translate(60.407999999999994, 72) scale(0.072, -0.072)" /><path d="M226 -17Q176 -17 139.0 11.5Q102 40 82.5 93.5Q63 147 63 223Q63 275 72.5 320.5Q82 366 100.5 402.5Q119 439 146.5 465.0Q174 491 209.5 505.0Q245 519 289 519Q323 519 352.0 512.0Q381 505 411 489V491Q411 502 422.0 508.5Q433 515 454 515Q476 515 487.0 508.5Q498 502 498 489V106Q498 89 500.0 79.0Q502 69 506.5 65.0Q511 61 519 61Q527 61 533.0 66.0Q539 71 546.0 82.0Q553 93 561 111Q565 120 574.0 123.0Q583 126 596 120Q610 115 616.5 106.0Q623 97 618 85Q609 58 593.5 35.0Q578 12 557.0 -2.5Q536 -17 508 -17Q484 -17 466.0 -9.5Q448 -2 435.5 12.5Q423 27 417.0 47.5Q411 68 411 93Q411 110 411.0 128.5Q411 147 411 165Q393 107 364.5 66.5Q336 26 301.0 4.5Q266 -17 226 -17ZM151 224Q151 178 159.5 141.5Q168 105 188.0 84.0Q208 63 241 63Q278 63 311.5 101.0Q345 139 371.0 207.5Q397 276 411 369V411Q380 428 353.0 434.5Q326 441 303 441Q274 441 250.0 432.0Q226 423 207.5 405.0Q189 387 176.5 361.0Q164 335 157.5 300.5Q151 266 151 224Z" transform="translate(81.93599999999999, 72) scale(0.072, -0.072)" /><path d="M231 -17Q195 -17 163.5 -2.5Q132 12 113.0 47.5Q94 83 94 145V489Q94 502 104.5 508.5Q115 515 136 515Q158 515 169.0 508.5Q180 502 180 489V155Q180 123 186.0 102.0Q192 81 206.0 71.0Q220 61 244 61Q279 61 309.0 87.0Q339 113 362.5 160.5Q386 208 403.5 272.5Q421 337 431 413V489Q431 502 441.5 508.5Q452 515 474 515Q496 515 507.0 508.5Q518 502 518 489V-375Q518 -457 497.0 -511.5Q476 -566 433.0 -592.5Q390 -619 324 -619Q285 -619 246.5 -608.0Q208 -597 176.0 -579.5Q144 -562 124 -542Q112 -530 110.5 -517.5Q109 -505 126 -489Q141 -475 151.0 -474.0Q161 -473 178 -485Q218 -514 251.0 -527.5Q284 -541 324 -541Q366 -541 389.5 -524.5Q413 -508 422.0 -471.0Q431 -434 431 -372V188Q412 131 387.5 91.5Q363 52 336.0 28.5Q309 5 282.0 -6.0Q255 -17 231 -17Z" transform="translate(126.72, 72) scale(0.072, -0.072)" /><path d="M229 -15Q207 -15 197.0 -8.0Q187 -1 182 11L25 465Q18 485 29.5 500.0Q41 515 69 515Q84 515 93.0 509.0Q102 503 106 489L230 109L362 489Q367 503 376.5 509.0Q386 515 402 515Q417 515 427.0 509.0Q437 503 441 489L576 109L699 489Q704 503 713.0 509.0Q722 515 737 515Q766 515 777.0 501.0Q788 487 780 465L621 11Q617 -1 607.0 -8.0Q597 -15 575 -15Q553 -15 544.5 -7.5Q536 0 532 11L402 378L275 11Q271 0 260.5 -7.5Q250 -15 229 -15Z" transform="translate(171.93599999999998, 72) scale(0.072, -0.072)" /><path d="M136 -15Q115 -15 104.5 -8.5Q94 -2 94 11V489Q94 502 104.5 508.5Q115 515 136 515Q158 515 169.0 508.5Q180 502 180 489V319Q198 374 220.0 412.0Q242 450 265.5 473.5Q289 497 312.0 508.0Q335 519 356 519Q382 519 407.5 507.0Q433 495 445 478Q450 471 448.5 460.0Q447 449 439 438Q429 424 418.0 421.0Q407 418 396 424Q384 431 373.0 435.5Q362 440 348 440Q323 440 296.5 414.0Q270 388 246.5 340.5Q223 293 205.5 229.0Q188 165 180 90V11Q180 -2 169.0 -8.5Q158 -15 136 -15Z" transform="translate(229.82399999999998, 72) scale(0.072, -0.072)" /><path d="M188 -17Q142 -17 118.0 10.5Q94 38 94 93V489Q94 502 104.5 508.5Q115 515 136 515Q158 515 169.0 508.5Q180 502 180 489V106Q180 80 185.0 70.5Q190 61 203 61Q210 61 215.0 66.0Q220 71 226.5 82.0Q233 93 241 111Q245 120 254.0 122.5Q263 125 276 120Q290 116 296.0 107.0Q302 98 298 89Q286 56 270.0 32.5Q254 9 234.0 -4.0Q214 -17 188 -17ZM131 669Q103 669 89.0 684.5Q75 700 75 731Q75 763 89.0 779.0Q103 795 131 795Q159 795 172.5 779.0Q186 763 186 731Q188 700 173.5 684.5Q159 669 131 669Z" transform="translate(262.512, 72) scale(0.072, -0.072)" /><path d="M228 -17Q192 -17 167.0 -2.0Q142 13 129.0 43.5Q116 74 116 118V420H39Q24 420 17.5 429.0Q11 438 11 460Q11 483 17.5 491.5Q24 500 39 500H116V704Q116 717 126.5 723.5Q137 730 159 730Q181 730 192.0 723.5Q203 717 203 704V500H330Q345 500 351.5 491.5Q358 483 358 460Q358 438 351.5 429.0Q345 420 330 420H203V126Q203 91 212.5 76.0Q222 61 240 61Q260 61 277.5 76.0Q295 91 313 129Q318 138 326.5 141.0Q335 144 350 139Q366 133 372.0 122.5Q378 112 374 101Q360 60 338.5 34.0Q317 8 289.5 -4.5Q262 -17 228 -17Z" transform="translate(284.112, 72) scale(0.072, -0.072)" /><path d="M271 -19Q208 -19 161.5 10.5Q115 40 89.0 94.5Q63 149 63 223Q63 282 80.5 335.5Q98 389 131.5 430.5Q165 472 213.0 495.5Q261 519 323 519Q364 519 398.0 505.0Q432 491 452.5 463.0Q473 435 473 391Q473 353 454.5 321.0Q436 289 404.0 263.0Q372 237 329.0 216.5Q286 196 237.0 181.0Q188 166 136 156L131 225Q166 233 202.0 243.5Q238 254 270.5 268.0Q303 282 328.5 299.0Q354 316 368.5 336.5Q383 357 383 381Q383 413 361.0 426.5Q339 440 308 440Q275 440 246.0 425.0Q217 410 196.0 382.5Q175 355 163.0 318.5Q151 282 151 238Q151 180 166.5 140.5Q182 101 211.0 81.0Q240 61 281 61Q318 61 342.5 74.0Q367 87 385.0 108.0Q403 129 420 151Q431 166 444.5 165.0Q458 164 471 153Q485 142 488.5 131.5Q492 121 484 108Q455 65 422.5 36.5Q390 8 352.5 -5.5Q315 -19 271 -19Z" transform="translate(311.904, 72) scale(0.072, -0.072)" /><path d="M202 -14Q158 -14 158 14V1068Q158 1082 169.0 1089.0Q180 1096 202 1096H702Q717 1096 723.5 1087.5Q730 1079 730 1056Q730 1034 723.5 1025.0Q717 1016 702 1016H246V588H628Q643 588 649.0 579.5Q655 571 655 548Q655 526 649.0 517.0Q643 508 628 508H246V14Q246 0 235.0 -7.0Q224 -14 202 -14Z" transform="translate(371.37600000000003, 72) scale(0.072, -0.072)" /><path d="M202 -14Q180 -14 169.0 -7.0Q158 0 158 14V1068Q158 1082 169.5 1089.0Q181 1096 203 1096H400Q523 1096 601.5 1070.0Q680 1044 719.0 987.0Q758 930 758 837Q758 785 744.0 741.5Q730 698 704.5 662.0Q679 626 643.0 598.0Q607 570 560.5 550.0Q514 530 460.0 517.5Q406 505 345 500Q409 421 479.0 343.0Q549 265 624.5 192.5Q700 120 782 54Q793 46 796.0 30.5Q799 15 780 -3Q767 -16 753.0 -16.5Q739 -17 724 -5Q636 67 553.0 148.5Q470 230 393.5 316.0Q317 402 246 487V14Q246 0 235.0 -7.0Q224 -14 202 -14ZM246 570Q299 570 347.0 575.0Q395 580 437.0 590.5Q479 601 515.0 616.0Q551 631 579.0 652.5Q607 674 627.0 701.5Q647 729 657.5 762.5Q668 796 668 837Q668 901 640.0 940.5Q612 980 555.0 998.0Q498 1016 412 1016H246Z" transform="translate(425.232, 72) scale(0.072, -0.072)" /><path d="M202 -14Q158 -14 158 14V1088Q158 1102 169.0 1108.5Q180 1115 202 1115Q222 1115 230.5 1107.5Q239 1100 246 1088L629 393L1012 1088Q1018 1100 1027.0 1107.5Q1036 1115 1055 1115Q1099 1115 1099 1088V14Q1099 0 1088.0 -7.0Q1077 -14 1055 -14Q1012 -14 1012 14V915L675 307Q668 294 658.5 289.5Q649 285 630 285Q611 285 600.5 288.5Q590 292 582 306L246 916V14Q246 0 235.0 -7.0Q224 -14 202 -14Z" transform="translate(506.66400000000004, 72) scale(0.072, -0.072)" /><path d="M295 -19Q228 -19 175.5 12.5Q123 44 93.0 104.0Q63 164 63 250Q63 309 80.0 358.0Q97 407 128.5 443.0Q160 479 202.0 499.0Q244 519 295 519Q362 519 414.0 484.5Q466 450 496.0 390.5Q526 331 526 255Q526 207 515.0 165.0Q504 123 483.5 89.0Q463 55 434.5 31.0Q406 7 370.5 -6.0Q335 -19 295 -19ZM295 61Q326 61 352.0 75.0Q378 89 397.5 115.0Q417 141 427.5 176.5Q438 212 438 255Q438 308 419.5 349.5Q401 391 369.0 415.0Q337 439 295 439Q264 439 237.5 425.0Q211 411 191.5 385.5Q172 360 161.5 325.5Q151 291 151 250Q151 195 169.5 152.5Q188 110 220.5 85.5Q253 61 295 61Z" transform="translate(597.168, 72) scale(0.072, -0.072)" /><path d="M229 -17Q177 -17 140.0 11.5Q103 40 83.0 93.5Q63 147 63 223Q63 275 72.5 320.5Q82 366 100.5 402.5Q119 439 146.5 465.0Q174 491 209.5 505.0Q245 519 289 519Q324 519 356.0 511.0Q388 503 418 486V1089Q418 1102 428.0 1108.5Q438 1115 460 1115Q482 1115 493.0 1108.5Q504 1102 504 1089V106Q504 80 508.5 70.5Q513 61 526 61Q533 61 539.0 66.0Q545 71 552.5 83.0Q560 95 569 114Q572 121 580.5 123.5Q589 126 603 120Q617 115 623.0 106.0Q629 97 625 88Q614 57 598.5 33.0Q583 9 562.0 -4.0Q541 -17 513 -17Q483 -17 462.0 -3.5Q441 10 429.5 37.0Q418 64 418 104Q418 121 418.0 137.5Q418 154 418 170Q396 105 367.5 63.5Q339 22 304.0 2.5Q269 -17 229 -17ZM151 224Q151 182 159.5 145.0Q168 108 188.5 85.5Q209 63 243 63Q281 63 314.0 96.0Q347 129 374.0 199.5Q401 270 418 384V409Q385 428 355.5 434.5Q326 441 303 441Q274 441 250.0 432.0Q226 423 207.5 405.0Q189 387 176.5 361.0Q164 335 157.5 300.5Q151 266 151 224Z" transform="translate(639.504, 72) scale(0.072, -0.072)" /><path d="M271 -19Q208 -19 161.5 10.5Q115 40 89.0 94.5Q63 149 63 223Q63 282 80.5 335.5Q98 389 131.5 430.5Q165 472 213.0 495.5Q261 519 323 519Q364 519 398.0 505.0Q432 491 452.5 463.0Q473 435 473 391Q473 353 454.5 321.0Q436 289 404.0 263.0Q372 237 329.0 216.5Q286 196 237.0 181.0Q188 166 136 156L131 225Q166 233 202.0 243.5Q238 254 270.5 268.0Q303 282 328.5 299.0Q354 316 368.5 336.5Q383 357 383 381Q383 413 361.0 426.5Q339 440 308 440Q275 440 246.0 425.0Q217 410 196.0 382.5Q175 355 163.0 318.5Q151 282 151 238Q151 180 166.5 140.5Q182 101 211.0 81.0Q240 61 281 61Q318 61 342.5 74.0Q367 87 385.0 108.0Q403 129 420 151Q431 166 444.5 165.0Q458 164 471 153Q485 142 488.5 131.5Q492 121 484 108Q455 65 422.5 36.5Q390 8 352.5 -5.5Q315 -19 271 -19Z" transform="translate(685.6560000000001, 72) scale(0.072, -0.072)" /><path d="M136 -15Q115 -15 104.5 -8.5Q94 -2 94 11V489Q94 502 104.5 508.5Q115 515 136 515Q158 515 169.0 508.5Q180 502 180 489V319Q198 374 220.0 412.0Q242 450 265.5 473.5Q289 497 312.0 508.0Q335 519 356 519Q382 519 407.5 507.0Q433 495 445 478Q450 471 448.5 460.0Q447 449 439 438Q429 424 418.0 421.0Q407 418 396 424Q384 431 373.0 435.5Q362 440 348 440Q323 440 296.5 414.0Q270 388 246.5 340.5Q223 293 205.5 229.0Q188 165 180 90V11Q180 -2 169.0 -8.5Q158 -15 136 -15Z" transform="translate(723.528, 72) scale(0.072, -0.072)" /><path d="M529 -17Q506 -17 488.5 -10.0Q471 -3 459.0 10.5Q447 24 441.0 45.0Q435 66 435 93V359Q435 387 429.0 404.5Q423 422 409.0 431.0Q395 440 370 440Q335 440 305.0 415.5Q275 391 250.5 345.0Q226 299 208.5 233.5Q191 168 180 85V11Q180 -2 169.0 -8.5Q158 -15 136 -15Q115 -15 104.5 -8.5Q94 -2 94 11V489Q94 502 104.5 508.5Q115 515 136 515Q158 515 169.0 508.5Q180 502 180 489V318Q199 377 223.5 415.5Q248 454 275.0 477.0Q302 500 329.0 509.5Q356 519 381 519Q420 519 452.0 505.5Q484 492 502.5 459.5Q521 427 521 369V106Q521 89 523.0 79.0Q525 69 529.5 65.0Q534 61 541 61Q550 61 556.5 66.0Q563 71 570.0 82.0Q577 93 585 111Q589 120 597.5 122.5Q606 125 620 120Q634 115 639.5 106.5Q645 98 641 89Q630 56 613.5 32.5Q597 9 576.0 -4.0Q555 -17 529 -17Z" transform="translate(756.216, 72) scale(0.072, -0.072)" /><path d="M271 -19Q208 -19 161.5 10.5Q115 40 89.0 94.5Q63 149 63 223Q63 282 80.5 335.5Q98 389 131.5 430.5Q165 472 213.0 495.5Q261 519 323 519Q364 519 398.0 505.0Q432 491 452.5 463.0Q473 435 473 391Q473 353 454.5 321.0Q436 289 404.0 263.0Q372 237 329.0 216.5Q286 196 237.0 181.0Q188 166 136 156L131 225Q166 233 202.0 243.5Q238 254 270.5 268.0Q303 282 328.5 299.0Q354 316 368.5 336.5Q383 357 383 381Q383 413 361.0 426.5Q339 440 308 440Q275 440 246.0 425.0Q217 410 196.0 382.5Q175 355 163.0 318.5Q151 282 151 238Q151 180 166.5 140.5Q182 101 211.0 81.0Q240 61 281 61Q318 61 342.5 74.0Q367 87 385.0 108.0Q403 129 420 151Q431 166 444.5 165.0Q458 164 471 153Q485 142 488.5 131.5Q492 121 484 108Q455 65 422.5 36.5Q390 8 352.5 -5.5Q315 -19 271 -19Z" transform="translate(802.728, 72) scale(0.072, -0.072)" /></g></svg>
